X:1
T:Title
%%score { ( 1 3 ) | ( 2 4 ) }
L:1/8
M:4/4
K:G
V:1 treble nm="Grand Piano"
V:3 treble 
V:2 bass 
V:4 bass 
V:1
 z4 z2[Q:1/4=100] D2 | [B,G]2 [DG]2 FE z E | F2 G2 A2 A2 | B2 B2 [Ec][DB]AG | %4
[M:7/8] [EA]2 [EG]2 F3 |[M:1/4] D2 |[M:4/4] c2 c2 B2 [DB]2 | [EA]2 A2 B2 [B,D]2 | %8
 [CE]2 [DF]2 [DG]2 [EA]2 |[M:7/8] G2 F2 G3 |[M:1/4] d2 |[M:4/4] c2 B2 [EA]2 FG | [EA]2 z2 z4 | %13
 z4 z2 .A2 |[M:7/8] [EA]2 [EG]2 F3 |[M:1/4] A2 |[M:4/4] B2 A2 c2 B2 |[M:9/8] z2 [Ec]- [Ec] z z z3 | %18
[M:4/4] z4 z2 .[DG]2 |[M:7/8] z2 A2 z z2 |] %20
V:2
 z4 z2 D,2 | z4 .A,2 .F,2 | [D,A,D]2 [E,A,D]2 [F,A,D]2 [D,F,D]2 | %3
 [G,D]2 [G,D]2 [G,,G,]2 [A,,F,][B,,G,] |[M:7/8] [C,E,]2 [^C,A,]2 [D,A,D]3 |[M:1/4] [D,F,]2 | %6
[M:4/4] [F,A,D]2 [D,F,D]2 [G,D]2 [G,,G,]2 | [C,G,]2 [D,F,D]2 [G,D]2 [G,,G,]2 | %8
 [C,G,]2 [C,A,]2 [B,,G,]2 [C,C]2 |[M:7/8] [D,B,D]2 [D,A,D]2 [G,B,D]3 |[M:1/4] [G,B,D]2 | %11
[M:4/4] [F,A,D]2 [G,D]2 [C,G,]2 [C,A,][B,,G,] | .[C,E,]2 [B,,^G,]2 [A,,A,]2 [D,F,D]2 | %13
 [G,D]2 [G,D]2 [G,,G,]2 [A,,F,][B,,G,] |[M:7/8] [C,E,]2 [^C,A,]2 [D,A,D]3 |[M:1/4] [F,A,D]2 | %16
[M:4/4] [G,D]2 [F,A,D]2 [E,G,C]2 [D,F,D]2 |[M:9/8] z2 A, z3 z ^D,2 |[M:4/4] E,3 B,, z A,B,,C, | %19
[M:7/8] [D,G,D]2 D z [G,,G,]3 |] %20
V:3
 x8 | z4 z2 D2 | x8 | z4 z2 D2 |[M:7/8] x7 |[M:1/4] x2 |[M:4/4] x8 | x8 | x8 |[M:7/8] x7 | %10
[M:1/4] x2 |[M:4/4] z4 z2 D2 | z F, [EB]2 [Ec]2 A2 | B2 B2 [Ec][DB]D-[DG] |[M:7/8] x7 |[M:1/4] x2 | %16
[M:4/4] x8 |[M:9/8] .[EA]3 G, [^DB]2- [DB] .[B,FB]2 |[M:4/4] [B,EG]3 [G,DF] [G,CE][DF]G,-[G,EA] | %19
[M:7/8] B2 z C [B,G]3 |] %20
V:4
 x8 | [G,,D,]2 [B,,G,]2 [D,D]-[D,G,D]D,-[D,G,] | x8 | x8 |[M:7/8] x7 |[M:1/4] x2 |[M:4/4] x8 | x8 | %8
 x8 |[M:7/8] x7 |[M:1/4] x2 |[M:4/4] x8 | x8 | x8 |[M:7/8] x7 |[M:1/4] x2 |[M:4/4] x8 | %17
[M:9/8] [C,E,]2 A,,- A,, [B,,F,]2- [B,,F,] z A |[M:4/4] z4 C,2 z2 |[M:7/8] z2 [D,F,]2 z z2 |] %20

